public/assets/home_cta/statamic.svg

<svg fill="none" height="120" viewBox="0 0 693 120" width="693" xmlns="http://www.w3.org/2000/svg"><g fill="#fff"><path d="m123.9 119.7c10.9 0 14.9-4.7 14.9-16.2v-22.4c0-10.7 5.2-16.8 10.2-19.7 1.5-.9 1.5-3 0-4-5.2-3.3-10.2-10.2-10.2-19.4v-22c0-12.4-3.4-16-14.3-16h-97.9c-10.9 0-14.3 3.6-14.3 16v22c0 9.2-4.99999 16.1-10.19999 19.4-1.500004.9-1.500004 3.1 0 4 5 2.8 10.19999 8.9 10.19999 19.7v22.4c0 11.5 4 16.2 14.9 16.2zm-48.6-20.5c-11.7 0-20.2-3.5-28.1-10.4-1.3-1.2-1.8-2.7-1.8-4.2 0-1.2.3-2.5 1.2-3.5l2.4-3.1c1.2-1.5 2.5-2.2 4-2.2 1.7 0 3.3.7 5 1.8 5.4 3.5 11.4 5.5 18.6 5.5 5.5 0 9.9-2.3 9.9-7 0-12.2-40.6-5.5-40.6-32.9 0-14.7 12-22.9 27.6-22.9 11 0 19.1 3.2 25.1 7 1.5 1 2.5 3 2.5 5 0 1.2-.3 2.3-1 3.3l-1.8 2.7c-1.3 1.8-2.8 2.7-4.7 2.7-1.3 0-2.7-.5-4.2-1.2-4.5-2.3-9.2-3.5-14.9-3.5-5.9 0-9.4 3.2-9.4 6.5 0 12.5 40.6 5.7 40.6 32.3 0 14.9-12 24.1-30.4 24.1z"/><path d="m193.2 81.4c1-1.3 2.1-1.8 3.4-1.8s2.9.6 4.2 1.6c4.5 3 9.6 4.7 15.7 4.7 4.7 0 8.4-1.9 8.4-6 0-10.3-34.3-4.7-34.3-27.7 0-12.4 10.2-19.4 23.3-19.4 9.3 0 16.1 2.6 21.2 6 1.3.8 2.1 2.5 2.1 4.2 0 1-.2 1.9-.8 2.9l-1.6 2.3c-1.1 1.6-2.4 2.3-3.9 2.3-1.1 0-2.3-.5-3.6-1-3.8-1.9-7.8-3-12.5-3-4.9 0-7.9 2.6-7.9 5.5 0 10.5 34.3 4.8 34.3 27.2 0 12.5-10.2 20.3-25.7 20.3-9.9 0-17.1-3-23.7-8.7-1.1-1-1.6-2.3-1.6-3.6 0-1 .2-2.1 1-3zm98.2 6.6c.5.7.7 1.6.7 2.4 0 1.8-.8 3.7-2.4 4.5-4.8 2.9-9.6 4.2-15.9 4.2-14.3 0-19.7-9.3-19.7-25.6v-51.6c0-2.9 2.4-5.3 5.3-5.3h5.7c2.9 0 5.3 2.4 5.3 5.3v12.4h15.3c2.9 0 5.3 2.4 5.3 5.3v4.8c0 2.9-2.4 5.3-5.3 5.3h-15.3v23.2c0 6.9 2.3 11.5 7.6 11.5 1.7 0 3.2-.2 4.5-.7s2.3-.7 3.2-.7c1.8 0 3.2.8 4.4 2.9zm9.9-8.8c0-14 10.3-20.6 23.2-20.6 5.6 0 11.2 1.8 14.3 4.1v-1.9c0-9.3-3-14.3-11.8-14.3-4.8 0-7.9.7-10.9 1.7-.8.2-1.7.5-2.5.5-2.1 0-3.8-1-4.8-3l-.8-1.7c-.2-.7-.6-1.4-.6-2.3 0-1.8 1.3-3.7 3-4.5 5.5-2.5 11.8-4.2 18.3-4.2 18.8 0 25.3 9.6 25.3 26.4v33.4c0 2.9-2.4 5.3-5.3 5.3h-3.7c-2.9 0-5.3-2.4-5.3-5.3v-2.1c-3.4 4.8-10.2 8.1-18.8 8.1-11.3-.1-19.6-7.3-19.6-19.6zm37.5-6.6c-2.9-2.1-6.5-3.1-11.1-3.1-5.4 0-10.2 2.5-10.2 7.9 0 4.8 3.9 7.5 9.1 7.5 6.8 0 10.3-3 12.3-5.7v-6.6zm67.8 15.4c.5.7.7 1.6.7 2.4 0 1.8-.8 3.7-2.4 4.5-4.8 2.9-9.6 4.2-15.9 4.2-14.3 0-19.7-9.3-19.7-25.6v-51.6c0-2.9 2.4-5.3 5.3-5.3h5.7c2.9 0 5.3 2.4 5.3 5.3v12.4h15.3c2.9 0 5.3 2.4 5.3 5.3v4.8c0 2.9-2.4 5.3-5.3 5.3h-15.3v23.2c0 6.9 2.3 11.5 7.6 11.5 1.7 0 3.2-.2 4.5-.7s2.3-.7 3.2-.7c1.8 0 3.2.8 4.4 2.9zm9.9-8.8c0-14 10.3-20.6 23.2-20.6 5.6 0 11.2 1.8 14.3 4.1v-1.9c0-9.3-3-14.3-11.8-14.3-4.8 0-7.9.7-10.9 1.7-.8.2-1.7.5-2.5.5-2.1 0-3.8-1-4.8-3l-.8-1.7c-.2-.7-.6-1.4-.6-2.3 0-1.8 1.3-3.7 3-4.5 5.5-2.5 11.8-4.2 18.3-4.2 18.8 0 25.3 9.6 25.3 26.4v33.4c0 2.9-2.4 5.3-5.3 5.3h-3.7c-2.9 0-5.3-2.4-5.3-5.3v-2.1c-3.4 4.8-10.2 8.1-18.8 8.1-11.2-.1-19.6-7.3-19.6-19.6zm37.5-6.6c-2.9-2.1-6.5-3.1-11.1-3.1-5.4 0-10.2 2.5-10.2 7.9 0 4.8 3.9 7.5 9.1 7.5 6.8 0 10.3-3 12.3-5.7v-6.6zm48.2-31.3c4.5-5 12-8.1 19.8-8.1 9.7 0 16.2 4.4 18.5 10.2 4.5-6 11.6-10.2 21.4-10.2 11.6 0 20.3 5.7 20.3 23.2v36.2c0 2.9-2.4 5.3-5.3 5.3h-5.7c-2.9 0-5.3-2.4-5.3-5.3v-32.1c0-7.9-3.2-12.2-10.9-12.2-6.1 0-10.9 3-13.1 7.3 0 1 .1 3.2.1 4.7v32.1c0 2.9-2.4 5.3-5.3 5.3h-5.7c-2.9 0-5.3-2.4-5.3-5.3v-33c0-6.7-3.7-11-10.5-11-5.7 0-10.4 2.5-13.3 6.8v37.4c0 2.9-2.4 5.3-5.3 5.3h-5.7c-2.9 0-5.3-2.4-5.3-5.3v-53.1c0-2.9 2.4-5.3 5.3-5.3h5.7c2.9 0 5.3 2.4 5.3 5.3v1.8zm116.7-29.9c0 6.5-4.7 10.2-9.3 10.2-5.5 0-10.2-3.7-10.2-10.2 0-5.7 4.7-9.4 10.2-9.4 4.6 0 9.3 3.7 9.3 9.4zm-6.8 22.9c2.9 0 5.3 2.4 5.3 5.3v53c0 2.9-2.4 5.3-5.3 5.3h-5.7c-2.9 0-5.3-2.4-5.3-5.3v-53.1c0-2.9 2.4-5.3 5.3-5.3h5.7zm68 16.2c-3.8-1.8-7.1-2.5-11.2-2.5-9.1 0-17.7 6.9-17.7 18 0 11.2 8.7 18.2 18.3 18.2 5 0 8.6-1.3 12.3-3.7 1.1-.7 2.3-1.1 3.4-1.1 1.7 0 3.2.7 4.4 2.1l2.4 3c.7.7 1 1.8 1 2.9 0 1.7-.7 3.6-1.9 4.5-7.6 6.1-14.3 7.5-22.2 7.5-21 0-34.9-13.3-34.9-33.3 0-18.5 13.5-33.3 32.9-33.3 8.5 0 14.7 1.4 20.9 4.8 1.6.8 2.5 2.9 2.5 4.7 0 .8-.1 1.6-.6 2.3l-2.1 3.7c-1.1 1.8-2.9 3-4.8 3-.8-.2-1.8-.3-2.7-.8z"/></g></svg>

<svg width="693" height="120" viewBox="0 0 693 120" fill="none" xmlns="http://www.w3.org/2000/svg">
<path d="M123.9 119.7C134.8 119.7 138.8 115 138.8 103.5V81.1C138.8 70.4 144 64.3 149 61.4C150.5 60.5 150.5 58.4 149 57.4C143.8 54.1 138.8 47.2 138.8 38V16C138.8 3.6 135.4 0 124.5 0H26.6C15.7 0 12.3 3.6 12.3 16V38C12.3 47.2 7.30001 54.1 2.10001 57.4C0.600006 58.3 0.600006 60.5 2.10001 61.4C7.10001 64.2 12.3 70.3 12.3 81.1V103.5C12.3 115 16.3 119.7 27.2 119.7H123.9ZM75.3 99.2C63.6 99.2 55.1 95.7 47.2 88.8C45.9 87.6 45.4 86.1 45.4 84.6C45.4 83.4 45.7 82.1 46.6 81.1L49 78C50.2 76.5 51.5 75.8 53 75.8C54.7 75.8 56.3 76.5 58 77.6C63.4 81.1 69.4 83.1 76.6 83.1C82.1 83.1 86.5 80.8 86.5 76.1C86.5 63.9 45.9 70.6 45.9 43.2C45.9 28.5 57.9 20.3 73.5 20.3C84.5 20.3 92.6 23.5 98.6 27.3C100.1 28.3 101.1 30.3 101.1 32.3C101.1 33.5 100.8 34.6 100.1 35.6L98.3 38.3C97 40.1 95.5 41 93.6 41C92.3 41 90.9 40.5 89.4 39.8C84.9 37.5 80.2 36.3 74.5 36.3C68.6 36.3 65.1 39.5 65.1 42.8C65.1 55.3 105.7 48.5 105.7 75.1C105.7 90 93.7 99.2 75.3 99.2Z" fill="white"/>
<path d="M193.2 81.4C194.2 80.1 195.3 79.6 196.6 79.6C197.9 79.6 199.5 80.2 200.8 81.2C205.3 84.2 210.4 85.9 216.5 85.9C221.2 85.9 224.9 84 224.9 79.9C224.9 69.6 190.6 75.2 190.6 52.2C190.6 39.8 200.8 32.8 213.9 32.8C223.2 32.8 230 35.4 235.1 38.8C236.4 39.6 237.2 41.3 237.2 43C237.2 44 237 44.9 236.4 45.9L234.8 48.2C233.7 49.8 232.4 50.5 230.9 50.5C229.8 50.5 228.6 50 227.3 49.5C223.5 47.6 219.5 46.5 214.8 46.5C209.9 46.5 206.9 49.1 206.9 52C206.9 62.5 241.2 56.8 241.2 79.2C241.2 91.7 231 99.5 215.5 99.5C205.6 99.5 198.4 96.5 191.8 90.8C190.7 89.8 190.2 88.5 190.2 87.2C190.2 86.2 190.4 85.1 191.2 84.2L193.2 81.4ZM291.4 88C291.9 88.7 292.1 89.6 292.1 90.4C292.1 92.2 291.3 94.1 289.7 94.9C284.9 97.8 280.1 99.1 273.8 99.1C259.5 99.1 254.1 89.8 254.1 73.5V21.9C254.1 19 256.5 16.6 259.4 16.6H265.1C268 16.6 270.4 19 270.4 21.9V34.3H285.7C288.6 34.3 291 36.7 291 39.6V44.4C291 47.3 288.6 49.7 285.7 49.7H270.4V72.9C270.4 79.8 272.7 84.4 278 84.4C279.7 84.4 281.2 84.2 282.5 83.7C283.8 83.2 284.8 83 285.7 83C287.5 83 288.9 83.8 290.1 85.9L291.4 88ZM301.3 79.2C301.3 65.2 311.6 58.6 324.5 58.6C330.1 58.6 335.7 60.4 338.8 62.7V60.8C338.8 51.5 335.8 46.5 327 46.5C322.2 46.5 319.1 47.2 316.1 48.2C315.3 48.4 314.4 48.7 313.6 48.7C311.5 48.7 309.8 47.7 308.8 45.7L308 44C307.8 43.3 307.4 42.6 307.4 41.7C307.4 39.9 308.7 38 310.4 37.2C315.9 34.7 322.2 33 328.7 33C347.5 33 354 42.6 354 59.4V92.8C354 95.7 351.6 98.1 348.7 98.1H345C342.1 98.1 339.7 95.7 339.7 92.8V90.7C336.3 95.5 329.5 98.8 320.9 98.8C309.6 98.7 301.3 91.5 301.3 79.2ZM338.8 72.6C335.9 70.5 332.3 69.5 327.7 69.5C322.3 69.5 317.5 72 317.5 77.4C317.5 82.2 321.4 84.9 326.6 84.9C333.4 84.9 336.9 81.9 338.9 79.2V72.6H338.8ZM406.6 88C407.1 88.7 407.3 89.6 407.3 90.4C407.3 92.2 406.5 94.1 404.9 94.9C400.1 97.8 395.3 99.1 389 99.1C374.7 99.1 369.3 89.8 369.3 73.5V21.9C369.3 19 371.7 16.6 374.6 16.6H380.3C383.2 16.6 385.6 19 385.6 21.9V34.3H400.9C403.8 34.3 406.2 36.7 406.2 39.6V44.4C406.2 47.3 403.8 49.7 400.9 49.7H385.6V72.9C385.6 79.8 387.9 84.4 393.2 84.4C394.9 84.4 396.4 84.2 397.7 83.7C399 83.2 400 83 400.9 83C402.7 83 404.1 83.8 405.3 85.9L406.6 88ZM416.5 79.2C416.5 65.2 426.8 58.6 439.7 58.6C445.3 58.6 450.9 60.4 454 62.7V60.8C454 51.5 451 46.5 442.2 46.5C437.4 46.5 434.3 47.2 431.3 48.2C430.5 48.4 429.6 48.7 428.8 48.7C426.7 48.7 425 47.7 424 45.7L423.2 44C423 43.3 422.6 42.6 422.6 41.7C422.6 39.9 423.9 38 425.6 37.2C431.1 34.7 437.4 33 443.9 33C462.7 33 469.2 42.6 469.2 59.4V92.8C469.2 95.7 466.8 98.1 463.9 98.1H460.2C457.3 98.1 454.9 95.7 454.9 92.8V90.7C451.5 95.5 444.7 98.8 436.1 98.8C424.9 98.7 416.5 91.5 416.5 79.2ZM454 72.6C451.1 70.5 447.5 69.5 442.9 69.5C437.5 69.5 432.7 72 432.7 77.4C432.7 82.2 436.6 84.9 441.8 84.9C448.6 84.9 452.1 81.9 454.1 79.2V72.6H454ZM502.2 41.3C506.7 36.3 514.2 33.2 522 33.2C531.7 33.2 538.2 37.6 540.5 43.4C545 37.4 552.1 33.2 561.9 33.2C573.5 33.2 582.2 38.9 582.2 56.4V92.6C582.2 95.5 579.8 97.9 576.9 97.9H571.2C568.3 97.9 565.9 95.5 565.9 92.6V60.5C565.9 52.6 562.7 48.3 555 48.3C548.9 48.3 544.1 51.3 541.9 55.6C541.9 56.6 542 58.8 542 60.3V92.4C542 95.3 539.6 97.7 536.7 97.7H531C528.1 97.7 525.7 95.3 525.7 92.4V59.4C525.7 52.7 522 48.4 515.2 48.4C509.5 48.4 504.8 50.9 501.9 55.2V92.6C501.9 95.5 499.5 97.9 496.6 97.9H490.9C488 97.9 485.6 95.5 485.6 92.6V39.5C485.6 36.6 488 34.2 490.9 34.2H496.6C499.5 34.2 501.9 36.6 501.9 39.5V41.3H502.2ZM618.9 11.4C618.9 17.9 614.2 21.6 609.6 21.6C604.1 21.6 599.4 17.9 599.4 11.4C599.4 5.7 604.1 2 609.6 2C614.2 2 618.9 5.7 618.9 11.4ZM612.1 34.3C615 34.3 617.4 36.7 617.4 39.6V92.6C617.4 95.5 615 97.9 612.1 97.9H606.4C603.5 97.9 601.1 95.5 601.1 92.6V39.5C601.1 36.6 603.5 34.2 606.4 34.2H612.1V34.3ZM680.1 50.5C676.3 48.7 673 48 668.9 48C659.8 48 651.2 54.9 651.2 66C651.2 77.2 659.9 84.2 669.5 84.2C674.5 84.2 678.1 82.9 681.8 80.5C682.9 79.8 684.1 79.4 685.2 79.4C686.9 79.4 688.4 80.1 689.6 81.5L692 84.5C692.7 85.2 693 86.3 693 87.4C693 89.1 692.3 91 691.1 91.9C683.5 98 676.8 99.4 668.9 99.4C647.9 99.4 634 86.1 634 66.1C634 47.6 647.5 32.8 666.9 32.8C675.4 32.8 681.6 34.2 687.8 37.6C689.4 38.4 690.3 40.5 690.3 42.3C690.3 43.1 690.2 43.9 689.7 44.6L687.6 48.3C686.5 50.1 684.7 51.3 682.8 51.3C682 51.1 681 51 680.1 50.5Z" fill="white"/>
</svg>
